X: 1
T: Miller O' Hirn, The
M: 4/4
L: 1/8
R: strathspey
K: Dmaj
D2 d>B A<F E>D | B,2 E>D B<D A,>B, |  D2 d>B A<F E>D | [1 B,>D C>E F<D D>C :| [2 B,>D C>E F<D D>B |: A<F F>A B<G G>A | [1 G<E E>d c<A A>B | A<F F>A B<G G>A | (3Bcd (3efg f<d d>B :| [2 G<E E>d c<A A>c | (3dAB (3cde (3fde (3fga | (3bag (3fed (3cBA (3GFE| D2
